X:325
%%etbk:tnset id:99,pos:2,rep:3x,ant:
%%etbk:tnset id:262,pos:4,rep:2x+A1B-Stop,ant:
%%etbk:tnset id:287,pos:2,rep:3x,ant:
%%etbk:tnset id:342,pos:1,rep:3x,ant:
%%etbk:wsite http://www.thesession.org/tunes/display/667
%%etbk:pldat 2016-08-18T18:31,2016-08-17T15:50,2016-08-16T15:47,2016-08-15T18:58,2016-08-12T16:09,2016-08-11T18:30,2016-08-10T15:44,2016-08-09T15:56,2016-08-08T18:23,2016-08-06T11:08,2016-06-21T16:04,2016-06-20T18:34,2016-06-18T16:21,2016-05-05T14:20,2016-05-03T15:30,2016-03-11T16:25,2016-03-09T17:00,2016-03-08T17:27,2016-03-07T18:33,2016-03-05T15:17,2016-02-27T15:16,2016-02-10T16:36,2015-11-03T17:09,2015-10-28T16:59,2015-10-26T19:04,2015-10-22T18:34,2015-10-19T18:21,2015-10-06T16:34,2015-06-24T19:06,2015-06-23T18:47,2015-06-18T19:17,2015-05-28T19:11,2015-04-23T18:22,2015-03-13T18:27,2015-03-10T16:50,2015-03-06T16:49,2015-02-22T12:50,2015-02-18T17:46,2015-02-14T12:39,2015-01-29T18:54,2015-01-28T17:29,2015-01-14T15:35,2015-01-13T17:32,2015-01-12T18:13,2015-01-08T17:49,2015-01-05T19:30,2014-12-07T11:23,2014-11-06T18:28,2014-11-04T16:16,2014-11-02T15:40,2014-11-01T13:52,2014-08-21T19:41,2014-08-20T18:25,2014-08-18T19:29,2014-08-14T19:38,2014-08-13T19:51,2014-08-12T19:23,2014-08-11T19:40,2014-08-10T11:38,2014-06-25T16:14,2014-06-25T15:59,2014-06-10T18:19,2014-03-06T18:15,2014-03-03T18:35,2014-02-27T18:04,2014-02-23T11:35,2013-12-29T13:28,2013-12-18T16:57,2013-10-30T15:51,2013-10-28T19:12,2013-10-26T16:49,2013-10-26T16:25,2013-10-15T18:20,2013-10-11T18:39,2013-10-08T16:16
T: Killavil, The
Z: Piano Box Version by Martin Fleischmann
H: Created 2013-02-19 /  Last Modified 2013-02-19
M: 6/8
L: 1/8
R: jig
K: Edor
|: "em"!2!B!1!EE BEE | !2!B!4!d!3!f !2!e!1!d!2!B | "D"{d}!2!B!1!A!2!F FEF | !1!D!2!F!3!A !5!d!4!B!3!A |
"em"!4!B!1!EE !2!B!1!EE | !2!B!4!d!3!f !2!e!1!d!2!B | "bm"{d}!2!B!1!A!2!F !5!d!3!A!2!F | !2!F!1!E!2!D "em"!1!E3 :|
|: "em"!2!B!5!e!3!f !4!gfe | "D"!3!f!2!f!3!f !2!e!1!d!2!B | {d}!2!B!1!A!2!F FEF | !1!D!2!F!3!A !5!d!4!B!3!A |
"em"!1!B!2!ef !4!gfe | "D"!3!f2!5!a !2!e!1!d!2!B | {d}!2!B!1!A!2!F !5!d!3!A!2!F | !2!F!1!E!2!D "em"!1!E3 :|


